X:1
T:What Will It Be When We See Him?
T:Daniel Brink Towner
T:What Will It Be When We See Him?
T:Public Domain
T:Public Domain
C:Daniel Brink Towner
Z:Public Domain
%%score ( 1 2 ) ( 3 4 )
L:1/8
M:6/4
K:Bb
V:1 treble 
V:2 treble 
V:3 bass 
V:4 bass 
V:1
 [DF]2 | [FB]3 [FB] [FB]2 [FB]2 [FA]2 [EG]2 | [DF]3 [EG] [DF]2 [B,D]6 | %3
w: 1.~If|sing- ing His prais- es is|sweet to us here,|
w: 2.~How|blest are the mo- ments with|Him which we spend,|
w: 3.~If|we up- on earth are a-|mazed at His grace,|
w: 4.~Our|heart burns with- in us when|His voice is heard,|
 [EF]3 [EF] [EF]2 [EA]3 [EG] [EF]2 | [DB]6 [DF]4 [DF]2 | [FB]3 [FB] [FB]2 [FB]2 [FA]2 [EG]2 | %6
w: What will it be when we|see Him? And|if to our hearts His own|
w: What will it be when we|see Him? When|per- fect com- mun- ion all|
w: What will it be when we|see Him? If|here, tho’ but dim- ly, His|
w: What will it be when we|see Him? And|love to Him- self in each|
 [DF]3 [EG] [DF]2 [B,D]6 | [EA]3 [EA] [EA]2 [=Ec]2 [EB]2 [EG]2 | (=E4 C2) [CF]6 || %9
w: Word grows more dear,|What will it be when we|see * Him?|
w: tho’t will tran- scend,|What will it be when we|see * Him?|
w: beau- ty we trace,|What will it be when we|see * Him?|
w: bo- som is stirred,|What will it be when we|see * Him?|
"^Refrain" [FB]3 [FB] [FB]2 [FB]3 [FA] [EG]2 | [EA]6 [CE]6 | [Ec]3 [Ec] [Ec]2 [Ec]3 [DB] [FA]2 | %12
w: |||
w: will it be when we see|Him? What|will it be when we see|
w: |||
w: |||
 [FB]6 [DF]4 [DF]2 | [Fd]3 [Fd] [Fd]2 [Fd]3 [Ec] [DB]2 | [DB] [DB]3 [B,D]2 [DF]4 [DF]2 | %15
w: |||
w: Him? We shall|in an in- stant be whol-|ly trans- formed, We’ll know|
w: |||
w: |||
 [EG]3 [EB] [EA]2 [Fd]2 [FB]2 [FB]2 | [Fc]6 [FB]4 |] %17
w: ||
w: what He is when we see|Him. *|
w: ||
w: ||
V:2
 x2 | x12 | x12 | x12 | x12 | x12 | x12 | x12 | G6 x6 || x12 | x12 | x12 | x12 | x12 | x12 | x12 | %16
w: ||||||||||||||||
w: ||||||||What||||||||
 x10 |] %17
w: |
w: |
V:3
 [B,,B,]2 | [B,,D]3 [B,,D] [B,,D]2 [B,,D]2 [B,,B,]2 [B,,B,]2 | [B,,B,]3 [B,,B,] [B,,B,]2 [B,,F,]6 | %3
 [F,A,]3 [F,A,] [F,A,]2 [F,C]3 [F,C] [F,C]2 | [B,,B,]6 [B,,B,]4 [B,,B,]2 | %5
 [B,,D]3 [B,,D] [B,,D]2 [B,,D]2 [B,,B,]2 [B,,B,]2 | [B,,B,]3 [B,,B,] [B,,B,]2 [B,,F,]6 | %7
 F,3 [F,C] [F,C]2 [A,,C]2 [C,C]2 [C,B,]2 | [C,B,]6 [F,A,]6 || %9
 [B,,D]3 [B,,D] [B,,D]2 [B,,D]3 [B,,B,] [B,,B,]2 | [F,C]6 [F,A,]6 | %11
 [F,A,]3 [F,A,] [F,A,]2 [F,A,]3 [F,B,] [F,C]2 | [B,,D]6 [B,,B,]4 [B,,B,]2 | %13
 [B,,B,]3 [B,,B,] [B,,B,]2 [B,,B,]3 [B,,B,] [B,,F,]2 | %14
 [B,,F,] [B,,F,]3 [B,,F,]2 [B,,B,]4 [B,,B,]2 | [E,B,]3 [E,G,] [E,G,]2 [B,,B,]2 [B,,D]2 [B,,D]2 | %16
 [F,E]6 [B,,D]4 |] %17
V:4
 x2 | x12 | x12 | x12 | x12 | x12 | x12 | F,3 x9 | x12 || x12 | x12 | x12 | x12 | x12 | x12 | x12 | %16
 x10 |] %17

